X:0269
M:6/8
L:1/8
Q:3/8=86
K:G
     G2G G2g|ege dBG|ABc BAG|EGG G2 :|
     dgg egg|dgg dBG|ABc BAG|EGG G2 :|

